azure-patterns/svg-copy-to-clipboard.svg

<svg xmlns="http://www.w3.org/2000/svg" viewBox="0 0 20.966 23.962"><path d="M20.966 9.418v14.544H5.99v-4.493H0V0h10.05l4.493 4.493h1.5l4.926 4.926m-4.493-.433H18.4l-1.93-1.93v1.93M5.99 4.493h6.423l-3-3H1.5v16.478h4.49V4.493m13.478 5.99h-4.492V5.99H7.488v16.474h11.981z"/></svg>

<svg xmlns="http://www.w3.org/2000/svg" viewBox="0 0 20.966 23.962">
                                
                            
    <path d="M20.966,9.418V23.962H5.99V19.469H0V0H10.05l4.493,4.493h1.5l4.926,4.926m-4.493-.433H18.4l-1.93-1.93v1.93M5.99,4.493h6.423l-3-3H1.5V17.971H5.99V4.493m13.478,5.99H14.976V5.99H7.488V22.464H19.469Z"></path>
</svg>
